images/011-car-2-1.svg

<svg width="79" height="79" viewBox="0 0 79 79" fill="none" xmlns="http://www.w3.org/2000/svg">
<path d="M62.9531 68.8164V10.1836C62.9531 9.89714 62.8393 9.62242 62.6368 9.41986C62.4342 9.21731 62.1595 9.10352 61.873 9.10352H35.442C35.2638 9.10351 35.0883 9.14761 34.9313 9.23188C34.7743 9.31614 34.6405 9.43796 34.542 9.58647L16.2269 37.193C16.1095 37.3699 16.0469 37.5776 16.0469 37.7899V53.3867C16.0469 53.6732 16.1607 53.9479 16.3632 54.1504C16.5658 54.353 16.8405 54.4668 17.127 54.4668C20.9314 54.4711 24.5787 55.9843 27.2689 58.6745C29.959 61.3646 31.4722 65.012 31.4766 68.8164C31.4766 69.1029 31.5904 69.3776 31.7929 69.5801C31.9955 69.7827 32.2702 69.8965 32.5566 69.8965H61.873C62.1595 69.8965 62.4342 69.7827 62.6368 69.5801C62.8393 69.3776 62.9531 69.1029 62.9531 68.8164ZM60.793 67.7363H33.6017C33.3346 63.7413 31.6269 59.9789 28.7957 57.1477C25.9645 54.3164 22.2021 52.6088 18.207 52.3417V38.1155L36.0214 11.2637H60.793V67.7363Z" fill="#8A1A10"/>
<path d="M22.2188 40.3596V44.6037C22.219 44.7449 22.2472 44.8847 22.3017 45.0149C22.3562 45.1452 22.436 45.2634 22.5364 45.3627C22.6368 45.462 22.7558 45.5404 22.8867 45.5935C23.0175 45.6466 23.1576 45.6732 23.2988 45.6719H55.7012C55.8424 45.6732 55.9825 45.6466 56.1133 45.5935C56.2442 45.5404 56.3632 45.462 56.4636 45.3627C56.564 45.2634 56.6438 45.1452 56.6983 45.0149C56.7528 44.8847 56.781 44.7449 56.7812 44.6037V16.3555C56.7812 16.069 56.6675 15.7943 56.4649 15.5917C56.2623 15.3892 55.9876 15.2754 55.7012 15.2754H39.3326C39.1549 15.2754 38.98 15.3192 38.8234 15.403C38.6667 15.4867 38.5331 15.6078 38.4344 15.7556L22.4007 39.7597C22.2821 39.9373 22.2187 40.146 22.2188 40.3596ZM24.3789 40.6872L39.91 17.4355H54.6211V43.5117H24.3789V40.6872Z" fill="#8A1A10"/>
<path d="M55.7012 51.3809H44.4375C44.151 51.3809 43.8763 51.4947 43.6738 51.6972C43.4712 51.8998 43.3574 52.1745 43.3574 52.4609C43.3574 52.7474 43.4712 53.0221 43.6738 53.2247C43.8763 53.4272 44.151 53.541 44.4375 53.541H55.7012C55.9876 53.541 56.2623 53.4272 56.4649 53.2247C56.6675 53.0221 56.7812 52.7474 56.7812 52.4609C56.7812 52.1745 56.6675 51.8998 56.4649 51.6972C56.2623 51.4947 55.9876 51.3809 55.7012 51.3809Z" fill="#8A1A10"/>
</svg>

<svg width="79" height="79" fill="none" xmlns="http://www.w3.org/2000/svg"><path d="M62.953 68.816V10.184a1.08 1.08 0 00-1.08-1.08H35.442a1.08 1.08 0 00-.9.482L16.227 37.193a1.08 1.08 0 00-.18.597v15.597a1.08 1.08 0 001.08 1.08 14.366 14.366 0 0114.35 14.35 1.08 1.08 0 001.08 1.08h29.316a1.08 1.08 0 001.08-1.08zm-2.16-1.08H33.602a16.534 16.534 0 00-15.395-15.394V38.115l17.814-26.851h24.772v56.472z" fill="#8A1A10"/><path d="M22.219 40.36v4.244a1.069 1.069 0 001.08 1.068H55.7a1.07 1.07 0 001.08-1.068V16.356a1.08 1.08 0 00-1.08-1.08H39.333a1.08 1.08 0 00-.899.48L22.401 39.76a1.08 1.08 0 00-.182.6zm2.16.327L39.91 17.436h14.711v26.076H24.38v-2.825zM55.701 51.38H44.437a1.08 1.08 0 100 2.161h11.264a1.08 1.08 0 000-2.16z" fill="#8A1A10"/></svg>
